public/icons/computer-gear.svg

<svg width="24" height="25" viewBox="0 0 24 25" fill="none" xmlns="http://www.w3.org/2000/svg">
<g clip-path="url(#clip0_573_378)">
<path d="M21.7906 3.34552H18.4233L16.7575 1.67973C16.4829 1.40513 16.0377 1.40513 15.7631 1.67973L14.9318 2.51105C14.6967 2.39701 14.4555 2.29688 14.2094 2.21124V1.03613C14.2094 0.64782 13.8946 0.333008 13.5063 0.333008H10.4937C10.1054 0.333008 9.79059 0.64782 9.79059 1.03613V2.2111C9.54417 2.29684 9.303 2.39687 9.06811 2.51091L8.23688 1.67968C7.96228 1.40509 7.51711 1.40509 7.24252 1.67968L5.57672 3.34548H2.20936C0.991125 3.34552 0 4.33665 0 5.55488V17.6049C0 18.8231 0.991125 19.8143 2.20936 19.8143H8.28436V22.9268H6.72811C6.3398 22.9268 6.02498 23.2416 6.02498 23.6299C6.02498 24.0182 6.3398 24.333 6.72811 24.333H17.2719C17.6602 24.333 17.975 24.0182 17.975 23.6299C17.975 23.2416 17.6602 22.9268 17.2719 22.9268H15.7156V19.8143H21.7906C23.0089 19.8143 24 18.8231 24 17.6049V5.55488C24 4.33665 23.0089 3.34552 21.7906 3.34552ZM7.30702 5.01029L6.6037 4.30698L7.73958 3.17115L8.44284 3.87441C8.66981 4.10143 9.02175 4.14582 9.29798 3.98241C9.72666 3.72887 10.188 3.53743 10.6691 3.41349C10.9798 3.33343 11.1968 3.05335 11.1968 2.73259V1.73926H12.8032V2.73254C12.8032 3.0533 13.0202 3.33338 13.3309 3.41345C13.811 3.53715 14.2725 3.72863 14.7024 3.9826C14.9786 4.14573 15.3303 4.10124 15.5572 3.87437L16.2604 3.1711L17.3963 4.30693L16.693 5.01024C16.466 5.23721 16.4216 5.5891 16.585 5.86538C16.8385 6.29396 17.0299 6.75526 17.154 7.23652C17.234 7.54712 17.5141 7.7642 17.8348 7.7642H18.8281V9.37051H17.8348C17.514 9.37051 17.234 9.58759 17.154 9.89818C17.0302 10.3785 16.8387 10.8399 16.5848 11.2697C16.4216 11.5459 16.4661 11.8976 16.693 12.1245L17.3963 12.8278L16.2604 13.9636L15.5572 13.2604C15.3301 13.0334 14.9783 12.9889 14.702 13.1524C14.2734 13.4059 13.8121 13.5973 13.3308 13.7214C13.0202 13.8014 12.8032 14.0815 12.8032 14.4022V15.3955H11.1968V14.4022C11.1968 14.0814 10.9798 13.8014 10.6692 13.7214C10.1889 13.5976 9.7275 13.4061 9.29761 13.1521C9.02142 12.9889 8.66967 13.0335 8.44284 13.2604L7.73958 13.9636L6.6037 12.8278L7.30702 12.1245C7.53403 11.8975 7.57842 11.5456 7.41502 11.2694C7.16152 10.8408 6.97008 10.3794 6.84605 9.89818C6.76598 9.58759 6.48591 9.37051 6.16519 9.37051H5.17191V7.76424H6.16519C6.48595 7.76424 6.76598 7.54721 6.84605 7.23657C6.96984 6.75624 7.16133 6.29485 7.41525 5.8651C7.57842 5.58887 7.53389 5.23716 7.30702 5.01029ZM14.3094 22.9268H9.69066V19.8143H14.3094V22.9268ZM22.5938 17.6049C22.5938 18.0477 22.2335 18.408 21.7906 18.408H2.20936C1.76653 18.408 1.40625 18.0477 1.40625 17.6049V5.55488C1.40625 5.11205 1.76653 4.75177 2.20936 4.75177H5.06489C5.0797 4.76982 5.09545 4.7874 5.11233 4.80427L5.94366 5.63565C5.82956 5.87068 5.72953 6.11185 5.64384 6.35804H4.46873C4.08042 6.35804 3.76561 6.67285 3.76561 7.06116V10.0736C3.76561 10.4619 4.08042 10.7768 4.46873 10.7768H5.64375C5.72944 11.0232 5.82952 11.2644 5.94352 11.4993L5.11233 12.3305C4.83773 12.6051 4.83773 13.0503 5.11233 13.3249L7.24252 15.4551C7.51711 15.7297 7.96228 15.7297 8.23688 15.4551L9.0682 14.6237C9.30323 14.7378 9.54445 14.8379 9.79059 14.9236V16.0986C9.79059 16.4869 10.1054 16.8017 10.4937 16.8017H13.5063C13.8946 16.8017 14.2094 16.4869 14.2094 16.0986V14.9236C14.4558 14.8379 14.697 14.7378 14.9319 14.6238L15.7632 15.455C16.0378 15.7296 16.4829 15.7296 16.7575 15.455L18.8877 13.3249C19.1623 13.0503 19.1623 12.6051 18.8877 12.3305L18.0563 11.4991C18.1704 11.2641 18.2705 11.0229 18.3562 10.7768H19.5312C19.9195 10.7768 20.2343 10.4619 20.2343 10.0736V7.06112C20.2343 6.6728 19.9195 6.35799 19.5312 6.35799H18.3563C18.2706 6.11157 18.1705 5.87035 18.0565 5.63551L18.8877 4.80427C18.9045 4.7874 18.9203 4.76987 18.9351 4.75177H21.7906C22.2334 4.75177 22.5937 5.11205 22.5937 5.55488V17.6049H22.5938Z" fill="#AE9F91"/>
<path d="M11.9999 12.2828C14.0488 12.2828 15.7156 10.616 15.7156 8.56716C15.7156 6.51834 14.0488 4.85156 11.9999 4.85156C9.95113 4.85156 8.2843 6.51839 8.2843 8.5672C8.2843 10.616 9.95113 12.2828 11.9999 12.2828ZM11.9999 6.25781C13.2733 6.25781 14.3093 7.2938 14.3093 8.5672C14.3093 9.84061 13.2733 10.8765 11.9999 10.8765C10.7265 10.8765 9.69055 9.84056 9.69055 8.56716C9.69055 7.29375 10.7265 6.25781 11.9999 6.25781Z" fill="#AE9F91"/>
</g>
<defs>
<clipPath id="clip0_573_378">
<rect width="24" height="24" fill="white" transform="translate(0 0.333008)"/>
</clipPath>
</defs>
</svg>

<svg xmlns="http://www.w3.org/2000/svg" fill="none" viewBox="0 0 24 25"><g fill="#ae9f91" clip-path="url(#a)"><path d="M21.79 3.346h-3.367L16.758 1.68a.703.703 0 0 0-.995 0l-.831.831a7 7 0 0 0-.723-.3V1.036a.703.703 0 0 0-.703-.703h-3.012a.703.703 0 0 0-.703.703v1.175a7 7 0 0 0-.723.3l-.831-.831a.703.703 0 0 0-.994 0L5.577 3.345H2.209A2.21 2.21 0 0 0 0 5.555v12.05c0 1.218.991 2.21 2.21 2.21h6.074v3.112H6.728a.703.703 0 0 0 0 1.406h10.544a.703.703 0 0 0 0-1.406h-1.556v-3.113h6.075c1.218 0 2.209-.99 2.209-2.21V5.555a2.21 2.21 0 0 0-2.21-2.208M7.308 5.01l-.703-.703L7.74 3.171l.703.703a.7.7 0 0 0 .855.108 5.3 5.3 0 0 1 1.371-.569c.31-.08.528-.36.528-.68v-.994h1.606v.994c0 .32.217.6.528.68.48.124.942.316 1.371.57a.7.7 0 0 0 .855-.109l.703-.703 1.136 1.136-.703.703a.7.7 0 0 0-.108.855 5.3 5.3 0 0 1 .569 1.372c.08.31.36.527.68.527h.994v1.607h-.993a.7.7 0 0 0-.681.527c-.124.48-.315.942-.57 1.372a.7.7 0 0 0 .109.854l.703.704-1.136 1.136-.703-.704a.7.7 0 0 0-.855-.108 5.3 5.3 0 0 1-1.371.57.7.7 0 0 0-.528.68v.994h-1.606v-.994c0-.32-.217-.6-.528-.68a5.3 5.3 0 0 1-1.371-.57.7.7 0 0 0-.855.108l-.703.704-1.136-1.136.703-.703a.7.7 0 0 0 .108-.856 5.3 5.3 0 0 1-.569-1.37.7.7 0 0 0-.68-.528h-.994V7.764h.993c.32 0 .601-.217.681-.527.124-.48.315-.942.57-1.372a.7.7 0 0 0-.109-.855m7.002 17.917H9.691v-3.113h4.618zm8.285-5.322c0 .443-.36.803-.803.803H2.209a.804.804 0 0 1-.803-.803V5.555c0-.443.36-.803.803-.803h2.856q.022.027.047.052l.832.832a7 7 0 0 0-.3.722H4.469a.703.703 0 0 0-.703.703v3.013c0 .388.314.703.703.703h1.175q.128.37.3.722l-.832.832a.703.703 0 0 0 0 .994l2.13 2.13c.275.275.72.275.995 0l.831-.831q.353.171.723.3v1.175c0 .388.314.703.703.703h3.012a.703.703 0 0 0 .703-.703v-1.175q.37-.129.723-.3l.831.831c.275.275.72.275.995 0l2.13-2.13a.703.703 0 0 0 0-.994l-.832-.832q.171-.353.3-.722h1.175a.703.703 0 0 0 .703-.703V7.06a.703.703 0 0 0-.703-.703h-1.175a7 7 0 0 0-.3-.722l.832-.832.047-.052h2.856c.442 0 .803.36.803.803z"/><path d="M12 12.283a3.72 3.72 0 0 0 3.716-3.716A3.72 3.72 0 0 0 12 4.852a3.72 3.72 0 0 0-3.716 3.715A3.72 3.72 0 0 0 12 12.283m0-6.025a2.31 2.31 0 0 1 2.31 2.31A2.31 2.31 0 0 1 12 10.876a2.31 2.31 0 0 1-2.31-2.31A2.31 2.31 0 0 1 12 6.257"/></g><defs><clipPath id="a"><path fill="#fff" d="M0 .333h24v24H0z"/></clipPath></defs></svg>
